X:1
T:Dieu de paix
T:Dieu de paix
T:André Vierendeels (23/08/09)
C:André Vierendeels
C:(23/08/09)
%%score [ 1 2 3 4 ]
L:1/8
Q:1/4=120
M:3/2
K:F
V:1 treble nm="Soprano" snm="S"
V:2 treble nm="Alto" snm="A"
V:3 treble-8 nm="Tenor" snm="T"
V:4 bass nm="Bass" snm="B"
V:1
"^Melody from XVIth century;" F4 F4 G4 | A6 B2 c4 | c4 c4 =B4 | c8 A4 | B8 A4 | G12 | F4 E8 | F12 | %8
w: Dieu de paix,|Dieu _ _|de cha- ri-|te! Nous|vou- lons|vi-|vr'en- frè-|res:|
 G4 G4 A4 | B8 B4 | A6 G2 A4 | =B12 | A4 A4 A4 | B6 c2 d4 | d4 ^c8 | d8 e4 | f8 A4 | B8 A4 | %18
w: tels sont nos|voeux sin-|cè- * *|res.|E- clai- re-|no- * tr'en-|ten- de-|ment à|ce de-|voir fa-|
 G4 G4 c4 | d6 c2 B4 | A4 G8 | F12 |] z12 |] %23
w: ci- le rends|no- tre coeur|do- ci-|le.-||
V:2
 (C2 E2) D4 E4 | C4 E2 D2 G2 C2 | F4 D4 (E2 F2) | E8 (F2 E2) | D8 C4 | C12 | =B,4 C4 _B,4 | A,12 | %8
w: Dieu _ de paix,|Dieu _ _ _ _|de cha- ri- *|te! Nous _|vou- lons|vi-|vr'en frè- *|res:|
 E2 D2 C2 B,2 C4 | D8 D4 | D8- D2 C2 | D12 | F2 E2 D2 C2 D4 | D6 E2 D2 E2 | F2 D2 E6 G2 | ^F8 G4 | %16
w: tels _ sont _ nos|voeux sin-|cè- * *|res.|E- * clai- * re|no- tr'en- * *|ten- * * de-|ment à|
 F4 B4 F4 | D8 F4 | E4 E4 C4 | F2 G2 F2 E2 F4 | F4 F4 E4 | C12 |] z12 |] %23
w: ce _ de-|voir fa-|ci- le rends|no- * tre _ coeur|do- ci- *|le.||
V:3
 A6 B2 c2 B2 | A2 B2 c2 d2 e4 | c2 B2 G2 F2 E2 D2 | G8 A4 | B2 A2 G4 F4 | E12 | F4 G8 | c12 | %8
w: Dieu de paix, _|Dieu _ _ _ _|de _ cha- * ri- *|te! Nous|vou- * * lons|vi-|vr'en frè-|res:|
 c2 B2 A2 G2 F4 | B8 G4 | ^F8 F4 | G12 | d2 c2 B2 A2 F4 | G2 A2 B2 A2 d2 c2 | d2 B2 A4 A4 | A8 G4 | %16
w: tels _ sont _ nos|voeux sin-|cè- *|res.|E- * clai- * re|no- * * tr'en- * *|ten- * * de-|ment à|
 c4 d4 c4 | F8 c4 | G4 G4 F4 | F2 E2 F2 G2 B4 | c4 G2 A2 B4 | A12 |] z12 |] %23
w: ce _ de-|voir fa-|ci- le rends|no- * tre _ coeur|do ci- * *|le.||
V:4
 F,4 D,4 C,4 | F,6 D,2 C,4 | F,4 G,4 G,,4 | C,8 F,4 | B,,8 F,,4 | C,12 | D,4 C,8 | F,,12 | %8
w: Dieu de paix,|Dieu _ _|de cha- ri-|te! Nous|vou- lons|vi-|vr'en frè-|res:|
 C,4 C,4 A,,4 | G,,8 B,,4 | D,8 D,4 | G,12 | D,4 D,4 D,4 | G,6 A,2 B,4 | G,4 A,4 A,,4 | D,8 C,4 | %16
w: tels sont nos|voeux sin-|cè- *|res.|E- clai- re|no- * tr'en-|ten- de- *|ment à|
 F,4 D,4 F,4 | B,,8 F,,4 | C,4 C,4 A,,4 | B,,6 C,2 D,4 | F,4 C,8 | F,12 |] z12 |] %23
w: ce _ de-|voir fa-|ci- le rends|no- tre coeur|do- ci-|le.||

